X:25
T:Liverpool Quick Step. RHu.025
S:R.Hughes MS,1823,Whitchurch,Shrops.
A:Whitchurch, Shropshire
Z:Neil Brookes 2006
M:2/4
L:1/8
Q:1/4=100
R:March
K:C
g|c’2bb|c’geg|f/e/f/g/ af|df eg|c’2bb|c’geg|f/e/f/d/ cB|c3::!
d|e2dc|Bcde|f/e/f/g/ af|egc’g|e2dc|Bcde|f/e/f/d/ cB|c3:|

